packages/react/src/components/base/Icon/assets/icon-books.svg

<svg width="24" height="24" viewBox="0 0 24 24" xmlns="http://www.w3.org/2000/svg" fill="currentColor"> <path d="M21.3347 18.5374L18.2232 3.74364C18.1728 3.50178 18.0751 3.27226 17.9358 3.06827C17.7964 2.86428 17.6181 2.68984 17.4111 2.55498C17.2041 2.42012 16.9725 2.3275 16.7296 2.28243C16.4867 2.23737 16.2373 2.24075 15.9957 2.29239L11.6072 3.23551C11.2038 3.32299 10.8409 3.54235 10.576 3.85895C10.4061 3.59546 10.1728 3.3788 9.89745 3.22877C9.62214 3.07875 9.3136 3.00016 9.00006 3.0002H4.50006C4.00278 3.0002 3.52587 3.19775 3.17424 3.54938C2.82261 3.90101 2.62506 4.37792 2.62506 4.8752V19.8752C2.62506 20.3725 2.82261 20.8494 3.17424 21.201C3.52587 21.5527 4.00278 21.7502 4.50006 21.7502H9.00006C9.49734 21.7502 9.97426 21.5527 10.3259 21.201C10.6775 20.8494 10.8751 20.3725 10.8751 19.8752V8.83614L13.2769 20.2568C13.3645 20.678 13.5942 21.0562 13.9276 21.3282C14.2609 21.6001 14.6777 21.7491 15.1079 21.7502C15.2412 21.7501 15.3741 21.7359 15.5044 21.708L19.8929 20.7649C20.3784 20.6588 20.8023 20.3651 21.0723 19.948C21.3424 19.5308 21.4367 19.0238 21.3347 18.5374ZM13.1429 8.68614L16.7991 7.90051L17.0363 9.02551L13.3801 9.81114L13.1429 8.68614ZM13.8422 12.0143L17.4985 11.2286L18.3572 15.3143L14.701 16.0999L13.8422 12.0143ZM16.0979 4.57145L16.3351 5.69645L12.6788 6.48208L12.4416 5.35708L16.0979 4.57145ZM4.87506 8.6252H8.62506V16.1252H4.87506V8.6252ZM8.62506 5.2502V6.3752H4.87506V5.2502H8.62506ZM4.87506 19.5002V18.3752H8.62506V19.5002H4.87506ZM15.4022 19.429L15.1651 18.304L18.8213 17.5183L19.0585 18.6433L15.4022 19.429Z"/> </svg>

<svg viewBox="0 0 24 24" xmlns="http://www.w3.org/2000/svg" aria-hidden="true" fill="currentColor"><path d="M21.335 18.537 18.223 3.744a1.876 1.876 0 0 0-2.227-1.452l-4.389.944a1.86 1.86 0 0 0-1.031.623A1.87 1.87 0 0 0 9 3H4.5a1.875 1.875 0 0 0-1.875 1.875v15A1.875 1.875 0 0 0 4.5 21.75H9a1.875 1.875 0 0 0 1.875-1.875V8.836l2.402 11.42a1.875 1.875 0 0 0 2.227 1.452l4.389-.943a1.884 1.884 0 0 0 1.442-2.228m-8.192-9.85 3.656-.786.237 1.125-3.656.785zm.7 3.327 3.656-.785.858 4.085-3.656.786zm2.255-7.443.237 1.125-3.656.786-.237-1.125zM4.875 8.625h3.75v7.5h-3.75zm3.75-3.375v1.125h-3.75V5.25zM4.875 19.5v-1.125h3.75V19.5zm10.527-.071-.237-1.125 3.656-.786.237 1.125z"/></svg>
